X:1
T:Denis Murphy's
C:Traditional
M:6/8
L:1/8
Q:3/8=120
K:D
F | A2F E2D | F2A d2f | e2c d2B | A2F G2A | A2F E2D | F2A a2f | B2A GFE | F3 D3 |]
